X:0322
T:Because he was a bonny Lad
M:C
L:1/8
Q:1/4=120
I: :: |:
Z:Jack Campin * www.campin.me.uk * 2009
K:G
d|  B>AGg (e/f/g/).e/ {e}d{c}B   |ce      (e/d/)(c/B/) cA    Ad|\
    B>AGg (e/f/g/)e/ ({e}d)(c/B/)|c>e     (d/e/d/c/)   BG G   :|
d|(TB>AG)B cdec                  |BG       e/d/c/B/    cAAd    |\
    B>AGB  cdef                  |g/f/e/d/ gB          G/G/G Gd|
    BGdG   eGdG                  |BG       e/d/c/B/    cAAf    |\
    gefd   ecdB                  |ce      (d/e/d/).c/  BG    G|]
<end>
<start>
